src/assets/flags/pg.svg

<?xml version="1.0" encoding="UTF-8"?>
<svg xmlns="http://www.w3.org/2000/svg" xmlns:xlink="http://www.w3.org/1999/xlink" width="25px" height="px" viewBox="0 0 25 19" version="1.1">
<g id="surface1">
<path style=" stroke:none;fill-rule:evenodd;fill:rgb(0%,0%,0.392157%);fill-opacity:1;" d="M 0.0625 0 L 0.0429688 19 L 25.042969 19 Z M 0.0625 0 "/>
<path style=" stroke:none;fill-rule:evenodd;fill:rgb(100%,0%,0%);fill-opacity:1;" d="M 25.023438 19 L 25.042969 0 L 0.0429688 0 Z M 25.023438 19 "/>
<path style="fill-rule:nonzero;fill:rgb(100%,80.000001%,0%);fill-opacity:1;stroke-width:1.1;stroke-linecap:butt;stroke-linejoin:miter;stroke:rgb(100%,80.000001%,0%);stroke-opacity:1;stroke-miterlimit:4;" d="M 177.981782 53.983332 L 174.197811 53.804875 C 172.981535 50.994173 169.693084 50.012657 167.620909 51.217244 L 155.998712 50.994173 L 163.116182 54.117175 C 165.008167 58.980137 170.999455 60.006266 170.999455 60.006266 C 170.41384 68.795288 162.080094 58.890908 155.097767 63.887712 C 150.097519 66.921486 150.097519 70.401404 147.394683 76.201266 C 146.493737 77.807381 142.98005 82.001128 142.98005 82.001128 L 148.881243 81.51037 L 146.989257 84.008772 L 154.016632 82.982643 L 152.485025 84.410301 C 153.521112 84.588759 160.50344 82.714957 160.50344 82.714957 L 160.00792 84.990288 L 167.981287 82.090357 C 167.981287 82.090357 169.602989 83.384172 170.999455 84.008772 L 171.990495 79.993483 L 175.999702 81.019613 L 176.990742 77.004324 C 182.98203 84.990288 185.009157 93.020866 196.000692 94.983896 L 195.009652 91.013221 L 203.703776 94.983896 L 204.604722 93.288552 C 209.379733 96.679241 213.298846 96.590012 216.001682 96.991541 L 214.019602 91.994737 L 216.001682 93.020866 L 212.983515 84.990288 L 216.001682 86.016417 L 211.992475 79.993483 L 213.479035 79.011968 L 212.983515 75.978194 C 219.01985 77.985839 226.993217 81.019613 227.984257 87.979447 C 229.020345 98.999185 216.992722 101.988345 209.019355 101.00683 C 215.010642 106.003634 226.002177 103.99599 231.002425 98.999185 C 232.984505 96.991541 234.020592 94.002381 235.011632 91.013221 C 236.002672 94.002381 237.984752 98.01767 237.984752 101.988345 C 236.993712 111.000439 225.011137 113.989598 216.992722 115.015728 C 226.002177 120.012532 241.99396 113.989598 242.985 101.00683 C 242.985 89.987092 236.002672 84.990288 232.984505 79.993483 L 231.993465 74.59515 L 235.011632 75.978194 C 235.011632 75.978194 233.209741 72.721348 232.984505 72.007519 C 232.984505 72.007519 229.92129 63.486183 228.795108 61.612382 L 231.002425 62.013911 L 222.803821 51.708002 L 225.101232 51.48493 C 225.101232 51.48493 215.596257 43.989724 212.983515 43.008209 L 216.001682 41.982079 C 210.010395 38.992919 202.98302 41.000564 196.991732 45.015853 L 197.982772 41.982079 L 196.180881 42.205151 L 196.180881 38.680619 L 197.982772 36.00376 L 195.009652 35.022245 L 196.991732 29.980826 L 194.018612 31.006955 L 195.009652 26.010151 C 195.009652 26.010151 192.802336 26.991666 191.40587 26.902437 L 192.982525 23.511749 C 191.991485 21.994862 192.982525 19.005702 192.982525 19.005702 C 186.000197 19.987217 185.009157 21.013347 180.99995 26.991666 C 175.008662 38.011404 176.990742 43.008209 177.981782 53.983332 Z M 177.981782 53.983332 " transform="matrix(0.0867145,0,0,0.087556,0.0429688,0)"/>
<path style="fill-rule:evenodd;fill:rgb(100%,0%,0%);fill-opacity:1;stroke-width:1.4;stroke-linecap:butt;stroke-linejoin:miter;stroke:rgb(100%,0%,0%);stroke-opacity:1;stroke-miterlimit:4;" d="M 215.821493 70.401404 C 216.317013 71.29369 221.99297 74.015164 226.182366 76.379723 C 225.101232 71.784448 216.812533 70.802933 215.821493 70.401404 Z M 215.821493 70.401404 " transform="matrix(0.0867145,0,0,0.087556,0.0429688,0)"/>
<path style=" stroke:none;fill-rule:evenodd;fill:rgb(100%,100%,100%);fill-opacity:1;" d="M 6.835938 15.792969 L 6.28125 15.4375 L 5.539062 15.796875 L 5.707031 15.15625 L 5.140625 14.558594 L 5.792969 14.519531 L 6.183594 13.789062 L 6.421875 14.40625 L 7.230469 14.554688 L 6.722656 14.972656 Z M 8.25 12.667969 L 7.992188 12.546875 L 7.746094 12.691406 L 7.785156 12.40625 L 7.574219 12.210938 L 7.851562 12.160156 L 7.96875 11.898438 L 8.105469 12.152344 L 8.386719 12.183594 L 8.191406 12.390625 Z M 9.5 10.878906 L 8.933594 10.601562 L 8.390625 10.910156 L 8.480469 10.289062 L 8.019531 9.859375 L 8.632812 9.75 L 8.890625 9.179688 L 9.1875 9.734375 L 9.804688 9.804688 L 9.375 10.261719 Z M 6.929688 8.382812 L 6.265625 8.046875 L 5.621094 8.40625 L 5.730469 7.671875 L 5.191406 7.15625 L 5.921875 7.039062 L 6.234375 6.363281 L 6.574219 7.027344 L 7.308594 7.117188 L 6.789062 7.648438 Z M 4.554688 10.972656 L 3.890625 10.578125 L 3.226562 10.984375 L 3.394531 10.21875 L 2.804688 9.707031 L 3.574219 9.632812 L 3.875 8.910156 L 4.183594 9.628906 L 4.957031 9.695312 L 4.375 10.207031 Z M 4.554688 10.972656 "/>
</g>
</svg>

<svg xmlns="http://www.w3.org/2000/svg" width="25" height="px" viewBox="0 0 25 19"><path d="m.063 0-.02 19h25Zm0 0" style="stroke:none;fill-rule:evenodd;fill:#000001;fill-opacity:1"/><path d="m25.023 19 .02-19h-25Zm0 0" style="stroke:none;fill-rule:evenodd;fill:red;fill-opacity:1"/><path d="m177.982 53.983-3.784-.178c-1.216-2.81-4.505-3.792-6.577-2.588l-11.622-.223 7.117 3.123c1.892 4.863 7.883 5.89 7.883 5.89-.585 8.788-8.919-1.116-15.901 3.88-5 3.034-5 6.514-7.703 12.314-.901 1.606-4.415 5.8-4.415 5.8l5.901-.49-1.892 2.498 7.028-1.026-1.532 1.427c1.036.179 8.018-1.695 8.018-1.695l-.495 2.275 7.973-2.9s1.622 1.294 3.018 1.919l.991-4.016L176 81.02l.99-4.016c5.992 7.986 8.02 16.017 19.01 17.98l-.99-3.97 8.694 3.97.9-1.695c4.776 3.39 8.695 3.301 11.398 3.703l-1.982-4.997 1.982 1.026-3.018-8.03 3.018 1.025-4.01-6.023 1.487-.981-.495-3.034c6.036 2.008 14.01 5.042 15 12.001 1.036 11.02-10.991 14.01-18.965 13.028 5.992 4.997 16.983 2.989 21.983-2.008 1.983-2.007 3.019-4.997 4.01-7.986.99 2.99 2.973 7.005 2.973 10.975-.991 9.012-12.974 12.002-20.992 13.028 9.01 4.997 25.001-1.026 25.992-14.01 0-11.019-6.982-16.016-10-21.013l-.992-5.398 3.019 1.383s-1.802-3.257-2.027-3.97c0 0-3.064-8.522-4.19-10.396l2.207.402-8.198-10.306 2.297-.223s-9.505-7.495-12.117-8.477l3.018-1.026c-5.992-2.99-13.019-.981-19.01 3.034l.99-3.034-1.801.223v-3.524l1.802-2.677-2.973-.982 1.982-5.041-2.973 1.026.99-4.997s-2.207.982-3.603.892l1.577-3.39c-.992-1.517 0-4.506 0-4.506-6.983.981-7.974 2.007-11.983 7.986-5.991 11.02-4.01 16.016-3.018 26.991Zm0 0" style="fill-rule:nonzero;fill:#fc0;fill-opacity:1;stroke-width:1.1;stroke-linecap:butt;stroke-linejoin:miter;stroke:#fc0;stroke-opacity:1;stroke-miterlimit:4" transform="matrix(.08671 0 0 .08756 .043 0)"/><path d="M215.821 70.401c.496.893 6.172 3.614 10.361 5.979-1.08-4.596-9.37-5.577-10.36-5.979Zm0 0" style="fill-rule:evenodd;fill:red;fill-opacity:1;stroke-width:1.4;stroke-linecap:butt;stroke-linejoin:miter;stroke:red;stroke-opacity:1;stroke-miterlimit:4" transform="matrix(.08671 0 0 .08756 .043 0)"/><path d="m6.836 15.793-.555-.355-.742.359.168-.64-.566-.598.652-.04.39-.73.239.617.808.149-.507.418Zm1.414-3.125-.258-.121-.246.144.04-.285-.212-.195.278-.05.117-.263.136.254.282.032-.196.207Zm1.25-1.79-.566-.276-.543.308.09-.62-.461-.43.613-.11.258-.57.297.554.617.07-.43.458ZM6.93 8.384l-.664-.336-.645.36.11-.735-.54-.516.73-.117.313-.676.34.664.735.09-.52.531Zm-2.375 2.59-.664-.395-.664.406.168-.765-.59-.512.77-.074.3-.723.309.719.773.066-.582.512Zm0 0" style="stroke:none;fill-rule:evenodd;fill:#fff;fill-opacity:1"/></svg>
